icons/Pin_Area_2.svg

<svg width="24" height="24" viewBox="0 0 24 24" fill="none" xmlns="http://www.w3.org/2000/svg">
<path fill-rule="evenodd" clip-rule="evenodd" d="M12,4.25c-0.9065,0 -1.7926,0.2688 -2.54634,0.77241c-0.75372,0.50362 -1.34117,1.21942 -1.68808,2.0569c-0.34691,0.83748 -0.43769,1.75903 -0.26086,2.6481c0.17682,0.88899 0.61329,1.70569 1.25422,2.34669l0.00007,0.0001l2.82909,2.8283c0.1093,0.1093 0.2576,0.1707 0.4122,0.1707c0.1546,0 0.3029,-0.0614 0.4123,-0.1707l2.8284,-2.8283v-0.0001c0.641,-0.641 1.0775,-1.4576 1.2543,-2.34669c0.1768,-0.88907 0.086,-1.81062 -0.2609,-2.6481c-0.3469,-0.83748 -0.9343,-1.55328 -1.6881,-2.0569c-0.7537,-0.50361 -1.6398,-0.77241 -2.5463,-0.77241zM8.62032,3.7752c1.00039,-0.66843 2.17648,-1.0252 3.37968,-1.0252c1.2032,0 2.3793,0.35677 3.3797,1.0252c1.0004,0.66844 1.7801,1.6185 2.2405,2.73007c0.4605,1.11157 0.581,2.33471 0.3463,3.51473c-0.2347,1.1801 -0.8141,2.264 -1.6648,3.1148v0l-2.8287,2.8287l-0.0003,0.0002c-0.3906,0.3903 -0.9202,0.6095 -1.4724,0.6095c-0.5521,0 -1.0817,-0.2192 -1.4724,-0.6095l-0.0002,-0.0002l-2.8293,-2.8286l-0.00007,-0.0001c-0.85074,-0.8508 -1.43009,-1.9347 -1.66479,-3.1148c-0.23471,-1.18003 -0.11422,-2.40316 0.34623,-3.51473c0.46044,-1.11157 1.24015,-2.06163 2.24055,-2.73007zM10.0555,6.88879c0.5157,-0.51573 1.2152,-0.80546 1.9445,-0.80546c0.7293,0 1.4288,0.28973 1.9445,0.80546c0.5158,0.51572 0.8055,1.2152 0.8055,1.94454c0,0.72935 -0.2897,1.42887 -0.8055,1.94457c-0.5157,0.5157 -1.2152,0.8054 -1.9445,0.8054c-0.7293,0 -1.4288,-0.2897 -1.9445,-0.8054c-0.51577,-0.5157 -0.8055,-1.21522 -0.8055,-1.94457c0,-0.72934 0.28973,-1.42882 0.8055,-1.94454zM12,7.58333c-0.3315,0 -0.6495,0.1317 -0.8839,0.36612c-0.2344,0.23442 -0.3661,0.55236 -0.3661,0.88388c0,0.33152 0.1317,0.64947 0.3661,0.88389c0.2344,0.23442 0.5524,0.36608 0.8839,0.36608c0.3315,0 0.6495,-0.13166 0.8839,-0.36608c0.2344,-0.23442 0.3661,-0.55237 0.3661,-0.88389c0,-0.33152 -0.1317,-0.64946 -0.3661,-0.88388c-0.2344,-0.23442 -0.5524,-0.36612 -0.8839,-0.36612zM3.6448,15.1004c0.46119,-0.449 1.07425,-0.8314 1.7793,-1.1483c0.21077,0.2708 0.43881,0.5292 0.68319,0.7736l0.00031,0.0003l0.40066,0.4006c-0.07936,0.0301 -0.15708,0.0608 -0.23311,0.0921c-0.71541,0.2946 -1.24499,0.6264 -1.58401,0.9564c-0.33665,0.3278 -0.44114,0.6063 -0.44114,0.825c0,0.2187 0.10449,0.4972 0.44114,0.825c0.33902,0.33 0.8686,0.6618 1.58401,0.9564c1.42731,0.5877 3.45094,0.9686 5.72485,0.9686c2.2739,0 4.2975,-0.3809 5.7248,-0.9686c0.7155,-0.2946 1.245,-0.6264 1.5841,-0.9564c0.3366,-0.3278 0.4411,-0.6063 0.4411,-0.825c0,-0.2187 -0.1045,-0.4972 -0.4411,-0.825c-0.3391,-0.33 -0.8686,-0.6618 -1.5841,-0.9564c-0.076,-0.0313 -0.1537,-0.062 -0.233,-0.0921l0.4009,-0.4008v-0.0001c0.2444,-0.2444 0.4724,-0.5028 0.6832,-0.7736c0.7051,0.3169 1.3181,0.6993 1.7793,1.1483c0.5236,0.5097 0.8948,1.1519 0.8948,1.8997c0,0.7478 -0.3712,1.39 -0.8948,1.8998c-0.5212,0.5074 -1.2365,0.9298 -2.0592,1.2686c-1.6491,0.679 -3.8755,1.0816 -6.296,1.0816c-2.42051,0 -4.64688,-0.4026 -6.29597,-1.0816c-0.82278,-0.3388 -1.538,-0.7612 -2.05923,-1.2686c-0.52359,-0.5098 -0.8948,-1.152 -0.8948,-1.8998c0,-0.7478 0.37121,-1.39 0.8948,-1.8997z" fill="#002B51"/>
</svg>

<svg width="24" height="24" viewBox="0 0 24 24" fill="none" xmlns="http://www.w3.org/2000/svg">
<path fill-rule="evenodd" clip-rule="evenodd" d="M12 4.25C11.0935 4.25 10.2074 4.5188 9.45366 5.02241C8.69994 5.52603 8.11249 6.24183 7.76558 7.07931C7.41867 7.91679 7.32789 8.83834 7.50472 9.72741C7.68154 10.6164 8.11801 11.4331 8.75894 12.0741L8.75901 12.0742L11.5881 14.9025C11.6974 15.0118 11.8457 15.0732 12.0003 15.0732C12.1549 15.0732 12.3032 15.0118 12.4126 14.9025L15.241 12.0742L15.241 12.0741C15.882 11.4331 16.3185 10.6165 16.4953 9.72741C16.6721 8.83834 16.5813 7.91679 16.2344 7.07931C15.8875 6.24183 15.3001 5.52603 14.5463 5.02241C13.7926 4.5188 12.9065 4.25 12 4.25ZM8.62032 3.7752C9.62071 3.10677 10.7968 2.75 12 2.75C13.2032 2.75 14.3793 3.10677 15.3797 3.7752C16.3801 4.44364 17.1598 5.3937 17.6202 6.50527C18.0807 7.61684 18.2012 8.83998 17.9665 10.02C17.7318 11.2001 17.1524 12.284 16.3017 13.1348L16.3017 13.1348L13.473 15.9635L13.4727 15.9637C13.0821 16.354 12.5525 16.5732 12.0003 16.5732C11.4482 16.5732 10.9186 16.354 10.5279 15.9637L10.5277 15.9635L7.6984 13.1349L7.69833 13.1348C6.84759 12.284 6.26824 11.2001 6.03354 10.02C5.79883 8.83997 5.91932 7.61684 6.37977 6.50527C6.84021 5.3937 7.61992 4.44364 8.62032 3.7752ZM10.0555 6.88879C10.5712 6.37306 11.2707 6.08333 12 6.08333C12.7293 6.08333 13.4288 6.37306 13.9445 6.88879C14.4603 7.40451 14.75 8.10399 14.75 8.83333C14.75 9.56268 14.4603 10.2622 13.9445 10.7779C13.4288 11.2936 12.7293 11.5833 12 11.5833C11.2707 11.5833 10.5712 11.2936 10.0555 10.7779C9.53973 10.2622 9.25 9.56268 9.25 8.83333C9.25 8.10399 9.53973 7.40451 10.0555 6.88879ZM12 7.58333C11.6685 7.58333 11.3505 7.71503 11.1161 7.94945C10.8817 8.18387 10.75 8.50181 10.75 8.83333C10.75 9.16485 10.8817 9.4828 11.1161 9.71722C11.3505 9.95164 11.6685 10.0833 12 10.0833C12.3315 10.0833 12.6495 9.95164 12.8839 9.71722C13.1183 9.4828 13.25 9.16485 13.25 8.83333C13.25 8.50181 13.1183 8.18387 12.8839 7.94945C12.6495 7.71503 12.3315 7.58333 12 7.58333ZM3.6448 15.1004C4.10599 14.6514 4.71905 14.269 5.4241 13.9521C5.63487 14.2229 5.86291 14.4813 6.10729 14.7257L6.1076 14.726L6.50826 15.1266C6.4289 15.1567 6.35118 15.1874 6.27515 15.2187C5.55974 15.5133 5.03016 15.8451 4.69114 16.1751C4.35449 16.5029 4.25 16.7814 4.25 17.0001C4.25 17.2188 4.35449 17.4973 4.69114 17.8251C5.03016 18.1551 5.55974 18.4869 6.27515 18.7815C7.70246 19.3692 9.72609 19.7501 12 19.7501C14.2739 19.7501 16.2975 19.3692 17.7248 18.7815C18.4403 18.4869 18.9698 18.1551 19.3089 17.8251C19.6455 17.4973 19.75 17.2188 19.75 17.0001C19.75 16.7814 19.6455 16.5029 19.3089 16.1751C18.9698 15.8451 18.4403 15.5133 17.7248 15.2187C17.6488 15.1874 17.5711 15.1567 17.4918 15.1266L17.8927 14.7258L17.8927 14.7257C18.1371 14.4813 18.3651 14.2229 18.5759 13.9521C19.281 14.269 19.894 14.6514 20.3552 15.1004C20.8788 15.6101 21.25 16.2523 21.25 17.0001C21.25 17.7479 20.8788 18.3901 20.3552 18.8999C19.834 19.4073 19.1187 19.8297 18.296 20.1685C16.6469 20.8475 14.4205 21.2501 12 21.2501C9.57949 21.2501 7.35312 20.8475 5.70403 20.1685C4.88125 19.8297 4.16603 19.4073 3.6448 18.8999C3.12121 18.3901 2.75 17.7479 2.75 17.0001C2.75 16.2523 3.12121 15.6101 3.6448 15.1004Z" fill="#002B51"/>
</svg>
